assets/Squinting face with tongue/Flat/squinting_face_with_tongue_flat.svg

<svg width="32" height="32" viewBox="0 0 32 32" fill="none" xmlns="http://www.w3.org/2000/svg">
<path d="M15.9989 29.9978C25.3333 29.9978 29.9978 23.7303 29.9978 15.9989C29.9978 8.26751 25.3333 2 15.9989 2C6.66443 2 2 8.26751 2 15.9989C2 23.7303 6.66443 29.9978 15.9989 29.9978Z" fill="#FFB02E"/>
<path d="M9.44719 11.1055C8.95321 10.8586 8.35254 11.0588 8.10555 11.5528C7.85856 12.0467 8.05878 12.6474 8.55276 12.8944L10.7639 14L8.55276 15.1055C8.05878 15.3525 7.85856 15.9532 8.10555 16.4472C8.35254 16.9412 8.95321 17.1414 9.44719 16.8944L13.4472 14.8944C13.786 14.725 14 14.3787 14 14C14 13.6212 13.786 13.2749 13.4472 13.1055L9.44719 11.1055Z" fill="#402A32"/>
<path d="M22.5528 11.1055C23.0468 10.8586 23.6475 11.0588 23.8945 11.5528C24.1414 12.0467 23.9412 12.6474 23.4472 12.8944L21.2361 14L23.4472 15.1055C23.9412 15.3525 24.1414 15.9532 23.8945 16.4472C23.6475 16.9412 23.0468 17.1414 22.5528 16.8944L18.5528 14.8944C18.214 14.725 18 14.3787 18 14C18 13.6212 18.214 13.2749 18.5528 13.1055L22.5528 11.1055Z" fill="#402A32"/>
<path d="M15.9988 26C8.99878 26 8.99878 19 8.99878 19H22.9988C22.9988 19 22.9988 26 15.9988 26Z" fill="#BB1D80"/>
<path d="M16.0155 29C20.2155 29 20.8855 24.8 21.0155 23.75C21.1155 22.9 20.6655 22.47 20.1755 22.18C19.6855 21.89 18.2155 21.62 16.0155 21.62C13.8155 21.62 12.3555 21.89 11.8555 22.18C11.3555 22.47 10.9055 22.9 11.0155 23.75C11.1455 24.8 11.8155 29 16.0155 29Z" fill="#F70A8D"/>
<path d="M22.8588 20.43C22.9488 19.97 22.9988 19.49 22.9988 19C18.3388 19 11.8388 19 8.99878 19C8.99878 19.49 9.04878 19.96 9.13878 20.43H22.8588Z" fill="white"/>
</svg>

<svg xmlns="http://www.w3.org/2000/svg" width="32" height="32" fill="none"><path fill="#FFB02E" d="M15.999 29.998c9.334 0 13.999-6.268 13.999-14 0-7.73-4.665-13.998-14-13.998C6.665 2 2 8.268 2 15.999c0 7.731 4.664 13.999 13.999 13.999Z"/><path fill="#402A32" d="M9.447 11.105a1 1 0 0 0-.894 1.79L10.763 14l-2.21 1.105a1 1 0 0 0 .894 1.79l4-2a1 1 0 0 0 0-1.79l-4-2ZM22.553 11.105a1 1 0 0 1 .894 1.79L21.237 14l2.21 1.105a1 1 0 0 1-.894 1.79l-4-2a1 1 0 0 1 0-1.79l4-2Z"/><path fill="#BB1D80" d="M15.999 26c-7 0-7-7-7-7h14s0 7-7 7Z"/><path fill="#F70A8D" d="M16.015 29c4.2 0 4.87-4.2 5-5.25.1-.85-.35-1.28-.84-1.57-.49-.29-1.96-.56-4.16-.56s-3.66.27-4.16.56c-.5.29-.95.72-.84 1.57.13 1.05.8 5.25 5 5.25Z"/><path fill="#fff" d="M22.859 20.43c.09-.46.14-.94.14-1.43h-14c0 .49.05.96.14 1.43h13.72Z"/></svg>
